X: 06009
T: BRIAN'S REEL
C: Bob McQuillen 24 Nov 81
B: Bob's Note Book 6 #9
%R: reel
Z: 2021 John Chambers <jc:trillian.mit.edu>
M: C
L: 1/8
K: D
DF \
| A2FA BAFE | D2D2 DFAB | defa fdfe | d2dB AFED |\
| F2FA BAFE | D2DF EDFA | BABd efaf | e2d2 d2 :|
|: AB \
| d2d2 fded | B2A2 A2AB | d2Bd BAde | f2d2 d2dB |\
| ABde f2af | efed B2de | f2af edBA | F2D2 D2 :|
%%begintext align
%% Brian Cartwright
%% brings his guitar to the Monday Night Dances, and
%% when he's not on the floor dancing up a storm, he's
%% on stage, _playing_ up a storm! Great music.
%%endtext

%%sep 1 1 500

%%sep 1 1 500

